public/avatar/hat/258.svg

<svg xmlns:xlink="http://www.w3.org/1999/xlink" height="92.9" width="100.7" xmlns="http://www.w3.org/2000/svg"><use height="17.05" transform="translate(24.95 46.15)" width="27" xlink:href="#a"/><defs><g id="a" fill-rule="evenodd"><path d="M8.3-2.75q-.1.2-.3.25l-.65 1 4.05-.25.3.45-.05.1-.35.3q-1.1 0-2.3.7 1.05.25 1.95.9.3.15.15.5-.1.35-.5.25l-2.55.15-.6.05q-2-.4-2.9-1.2L4.4.05l.2-.6q1.1-2.8 3.35-2.75h.1l.25.4v.15" transform="translate(13.7 3.6)"/><path d="M5-.15q.2-2 2.55-2.6-.8.3-1.05 2.5 1.25-1.8 4.05-1.1-1.25.15-2.4 1l-.6.5Q8.85 0 10.3.9l-2.6.2Q5.85.6 5-.15" fill="#803500" transform="translate(13.7 3.6)"/><path d="m12.35 7.2.3.55q1.1 2.85-.45 4.35l-.05.05-.5-.05-.05-.1q-.15-.3.1-.5h-.05l-.05.05-.25-1.15q-.85 1.95-2.65 3.05l-.55-.1-.05-.1q-.1-.3.05-.45l1.1-2.15-2 .8q-.35.1-.45-.25-.15-.35.15-.55 1.5-.8 1.7-1.95.15-.4.4-.45 2.1-1.15 2.9-1.2l.4.15" transform="translate(13.7 3.6)"/><path d="m9.3 8.85 2.75-1.1q1.25 1.65.05 3.65.35-.7-1-2.45.35 2.2-2.1 3.6.8-.95 1-2.35v-.8q-.8 1-2.4 1.45.85-.5 1.7-2" fill="#803500" transform="translate(13.7 3.6)"/><path d="M8.9 1.15q.3.5-.2 1Q7.35 3.4.05 3.9q-7.65.5-9.85-1-.85-.6-.55-1.45l.05-.25.15-.1q5.75-3.25 12.4-2.45 5.5.65 6.65 2.5" fill="#414244" transform="translate(13.7 3.6)"/><path d="M-9.2 2.1Q-6.65-.7.15-.5 6.7-.3 8.3 1.95 9.1 3.1.95 3.6q-8.2.45-10.45-1.1-.3-.25-.05-.35l.35-.05" fill="#fff" transform="translate(13.7 3.6)"/><path d="M5.65.4q2.05.65 2.65 1.55Q9.1 3.1.95 3.6q-8.2.45-10.45-1.1-.3-.25-.05-.35l.35-.05 1.25-1q7.2 2.7 13.6-.7" fill="#abb8d9" transform="translate(13.7 3.6)"/><path d="M-11-.45q-.3-.25-.15-.65.15-.35.6-.25l2.3 1.15q-.3-1.65-1.1-2.65l-.05-.55.1-.15.65-.05q2 1.4 2.85 3.9.55-1.05.45-1.35v-.5l.1-.1.6-.05.05.05q1.8 2.1.1 5.25l-.45.6q-.15.2-.45.2-1.1-.15-3.35-1.75l-.4-.55Q-9.35.65-11-.45" transform="translate(13.7 3.6)"/><path d="M-9.2-.1q1.15.7 1.7 1.5.45-1.9-.9-3.9 1.35.95 1.9 2.55.45 1.25.25 2Q-4.45 0-4.75-.8q1.15 2.55-.45 4.35L-8.4 2Q-8.9.35-10.25-.6l1.05.5" fill="#803500" transform="translate(13.7 3.6)"/><path d="M-9.2 8.35q.15 1.05 1.6 1.8.3.2.2.5-.1.35-.45.25l-1.9-.7q.35 1.2 1.1 2 .15.15.05.4l-.05.1q-.2.3-.5.1-1.65-.9-2.55-2.75l-.2 1.05-.05-.05q.2.25.05.45l-.05.1-.45.05h-.05q-1.5-1.4-.5-4.1l.3-.5q.1-.15.35-.15 1.1.05 2.7 1.05l.4.4" transform="translate(13.7 3.6)"/><path d="M-10.45 9.8q.25 1.3 1 2.2-2.35-1.35-2-3.35-1.2 1.6-.95 2.25-1.05-1.85 0-3.35 1.05.05 2.6.95.5 1.2 1.65 1.85-1.55-.4-2.3-1.3v.75" fill="#803500" transform="translate(13.7 3.6)"/><path d="m10.3 3.55.25.3.05.1-.1.25Q9.1 5.7 2.75 6.65q-7.95 1.1-13.9-1.6l-.25-.3.1-.35.65-.8-.05-1.35.2-.3.35-.05Q-6.2 3.7 1.2 3.1q6.25-.55 7.45-1.4l.4-.05.25.3.15 1.3.85.3" fill="#414244" transform="translate(13.7 3.6)"/><path d="M2.2 5.95q-7.4.85-12.55-1.45l.5-.65-.05-1q3.9 1.6 11.2 1 6-.55 7.3-1.3l.1 1.15.65.35Q8.3 5.2 2.2 5.95" fill="#fff" transform="translate(13.7 3.6)"/><path d="m8.65 3.1.05.6.65.35Q8.3 5.2 2.2 5.95q-7.4.85-12.55-1.45l.4-.5Q-8.5 5.05-4.2 5.4q4.65.4 7.5-.75-5 .8-7 0Q4.95 4.6 8.65 3.1" fill="#abb8d9" transform="translate(13.7 3.6)"/><path d="m10.4 2.4.25.35.2 1.6.95.45.3.35v.1l-.05.35q-3.2 4.85-21.7.45Q8 4.2 9.95 2.45l.45-.05" fill="#414244" transform="translate(13.7 3.6)"/><path d="M3.3 7.75q-7.8 1.05-13.35-1.9Q1 6.9 9.95 3.55L10.1 5l.7.4Q9.7 6.85 3.3 7.75" fill="#fff" transform="translate(13.7 3.6)"/><path d="m10.05 4.1.05.9.7.4Q9.7 6.85 3.3 7.75q-7.8 1.05-13.35-1.9 5.1.45 9.2.05l8.8-.3-3.25-.15q3.2-.35 5.35-1.35" fill="#abb8d9" transform="translate(13.7 3.6)"/><path d="m11 4.55.5-.05.3.35.15 1.65 1 .45.35.4v.1l-.1.35q-1.8 1.85-9.65 2.75-9.75 1.15-17-2.55l-.25-.35v-.1l.15-.35.8-1.05v-1.7l.2-.4.5-.05q4.75 2.5 13.9 2Q9.5 5.55 11 4.55" fill="#414244" transform="translate(13.7 3.6)"/><path d="M2.95 9.65q-9.1.85-15.4-2.3l.65-.85V5.2q4.75 2.25 13.75 1.7 7.25-.4 8.95-1.3l.1 1.5.8.4q-1.4 1.45-8.85 2.15" fill="#fff" transform="translate(13.7 3.6)"/><path d="M11.8 7.5q-.5.55-3.55 1.3l-7.4 1q2.2-.4 3.9-1.3-6.3 1.2-11.6-.7Q6.1 9.1 10.9 6.25l.1.85.8.4" fill="#abb8d9" transform="translate(13.7 3.6)"/></g></defs></svg>

<?xml version="1.0" encoding="UTF-8" standalone="no"?>
<svg xmlns:xlink="http://www.w3.org/1999/xlink" height="92.9px" width="100.7px" xmlns="http://www.w3.org/2000/svg">
  <g transform="matrix(1.0, 0.0, 0.0, 1.0, 38.65, 49.75)">
    <use height="17.05" transform="matrix(1.0, 0.0, 0.0, 1.0, -13.7, -3.6)" width="27.0" xlink:href="#shape0"/>
  </g>
  <defs>
    <g id="shape0" transform="matrix(1.0, 0.0, 0.0, 1.0, 13.7, 3.6)">
      <path d="M8.3 -2.75 Q8.2 -2.55 8.0 -2.5 L7.35 -1.5 11.4 -1.75 11.7 -1.3 11.65 -1.2 11.3 -0.9 Q10.2 -0.9 9.0 -0.2 10.05 0.05 10.95 0.7 11.25 0.85 11.1 1.2 11.0 1.55 10.6 1.45 L8.05 1.6 7.45 1.65 Q5.45 1.25 4.55 0.45 L4.4 0.05 4.6 -0.55 Q5.7 -3.35 7.95 -3.3 L8.05 -3.3 8.3 -2.9 8.3 -2.75" fill="#000000" fill-rule="evenodd" stroke="none"/>
      <path d="M5.0 -0.15 Q5.2 -2.15 7.55 -2.75 6.75 -2.45 6.5 -0.25 7.75 -2.05 10.55 -1.35 9.3 -1.2 8.15 -0.35 L7.55 0.15 Q8.85 0.0 10.3 0.9 L7.7 1.1 Q5.85 0.6 5.0 -0.15" fill="#803500" fill-rule="evenodd" stroke="none"/>
      <path d="M12.35 7.2 L12.65 7.75 Q13.75 10.6 12.2 12.1 L12.15 12.15 11.65 12.1 11.6 12.0 Q11.45 11.7 11.7 11.5 L11.65 11.5 11.6 11.55 11.35 10.4 Q10.5 12.35 8.7 13.45 L8.15 13.35 8.1 13.25 Q8.0 12.95 8.15 12.8 L9.25 10.65 7.25 11.45 Q6.9 11.55 6.8 11.2 6.65 10.85 6.95 10.65 8.45 9.85 8.65 8.7 8.8 8.3 9.05 8.25 11.15 7.1 11.95 7.05 L12.35 7.2" fill="#000000" fill-rule="evenodd" stroke="none"/>
      <path d="M9.3 8.85 L12.05 7.75 Q13.3 9.4 12.1 11.4 12.45 10.7 11.1 8.95 11.45 11.15 9.0 12.55 9.8 11.6 10.0 10.2 L10.0 9.4 Q9.2 10.4 7.6 10.85 8.45 10.35 9.3 8.85" fill="#803500" fill-rule="evenodd" stroke="none"/>
      <path d="M8.9 1.15 Q9.2 1.65 8.7 2.15 7.35 3.4 0.05 3.9 -7.6 4.4 -9.8 2.9 -10.65 2.3 -10.35 1.45 L-10.3 1.2 -10.15 1.1 Q-4.4 -2.15 2.25 -1.35 7.75 -0.7 8.9 1.15" fill="#414244" fill-rule="evenodd" stroke="none"/>
      <path d="M-9.2 2.1 Q-6.65 -0.7 0.15 -0.5 6.7 -0.3 8.3 1.95 9.1 3.1 0.95 3.6 -7.25 4.05 -9.5 2.5 -9.8 2.25 -9.55 2.15 L-9.2 2.1" fill="#ffffff" fill-rule="evenodd" stroke="none"/>
      <path d="M5.65 0.4 Q7.7 1.05 8.3 1.95 9.1 3.1 0.95 3.6 -7.25 4.05 -9.5 2.5 -9.8 2.25 -9.55 2.15 L-9.2 2.1 -7.95 1.1 Q-0.75 3.8 5.65 0.4" fill="#abb8d9" fill-rule="evenodd" stroke="none"/>
      <path d="M-11.0 -0.45 Q-11.3 -0.7 -11.15 -1.1 -11.0 -1.45 -10.55 -1.35 L-8.25 -0.2 Q-8.55 -1.85 -9.35 -2.85 L-9.4 -3.4 -9.3 -3.55 -8.65 -3.6 Q-6.65 -2.2 -5.8 0.3 -5.25 -0.75 -5.35 -1.05 L-5.35 -1.55 -5.25 -1.65 -4.65 -1.7 -4.6 -1.65 Q-2.8 0.45 -4.5 3.6 L-4.95 4.2 Q-5.1 4.4 -5.4 4.4 -6.5 4.25 -8.75 2.65 L-9.15 2.1 Q-9.35 0.65 -11.0 -0.45" fill="#000000" fill-rule="evenodd" stroke="none"/>
      <path d="M-9.2 -0.1 Q-8.05 0.6 -7.5 1.4 -7.05 -0.5 -8.4 -2.5 -7.05 -1.55 -6.5 0.05 -6.05 1.3 -6.25 2.05 -4.45 0.0 -4.75 -0.8 -3.6 1.75 -5.2 3.55 L-8.4 2.0 Q-8.9 0.35 -10.25 -0.6 L-9.2 -0.1" fill="#803500" fill-rule="evenodd" stroke="none"/>
      <path d="M-9.2 8.35 Q-9.05 9.4 -7.6 10.15 -7.3 10.35 -7.4 10.65 -7.5 11.0 -7.85 10.9 L-9.75 10.2 Q-9.4 11.4 -8.65 12.2 -8.5 12.35 -8.6 12.6 L-8.65 12.7 Q-8.85 13.0 -9.15 12.8 -10.8 11.9 -11.7 10.05 L-11.9 11.1 -11.95 11.05 Q-11.75 11.3 -11.9 11.5 L-11.95 11.6 -12.4 11.65 -12.45 11.65 Q-13.95 10.25 -12.95 7.55 L-12.65 7.05 Q-12.55 6.9 -12.3 6.9 -11.2 6.95 -9.6 7.95 L-9.2 8.35" fill="#000000" fill-rule="evenodd" stroke="none"/>
      <path d="M-10.45 9.8 Q-10.2 11.1 -9.45 12.0 -11.8 10.65 -11.45 8.65 -12.65 10.25 -12.4 10.9 -13.45 9.05 -12.4 7.55 -11.35 7.6 -9.8 8.5 -9.3 9.7 -8.15 10.35 -9.7 9.95 -10.45 9.05 L-10.45 9.8" fill="#803500" fill-rule="evenodd" stroke="none"/>
      <path d="M10.3 3.55 L10.55 3.85 10.6 3.95 10.5 4.2 Q9.1 5.7 2.75 6.65 -5.2 7.75 -11.15 5.05 L-11.4 4.75 -11.3 4.4 -10.65 3.6 -10.7 2.25 -10.5 1.95 -10.15 1.9 Q-6.2 3.7 1.2 3.1 7.45 2.55 8.65 1.7 L9.05 1.65 9.3 1.95 9.45 3.25 10.3 3.55" fill="#414244" fill-rule="evenodd" stroke="none"/>
      <path d="M2.2 5.95 Q-5.2 6.8 -10.35 4.5 L-9.85 3.85 -9.9 2.85 Q-6.0 4.45 1.3 3.85 7.3 3.3 8.6 2.55 L8.7 3.7 9.35 4.05 Q8.3 5.2 2.2 5.95" fill="#ffffff" fill-rule="evenodd" stroke="none"/>
      <path d="M8.65 3.1 L8.7 3.7 9.35 4.05 Q8.3 5.2 2.2 5.95 -5.2 6.8 -10.35 4.5 L-9.95 4.0 Q-8.5 5.05 -4.2 5.4 0.45 5.8 3.3 4.65 -1.7 5.45 -3.7 4.65 4.95 4.6 8.65 3.1" fill="#abb8d9" fill-rule="evenodd" stroke="none"/>
      <path d="M10.4 2.4 L10.65 2.75 10.85 4.35 11.8 4.8 12.1 5.15 12.1 5.25 12.05 5.6 Q8.85 10.45 -9.65 6.05 8.0 4.2 9.95 2.45 L10.4 2.4" fill="#414244" fill-rule="evenodd" stroke="none"/>
      <path d="M3.3 7.75 Q-4.5 8.8 -10.05 5.85 1.0 6.9 9.95 3.55 L10.1 5.0 10.8 5.4 Q9.7 6.85 3.3 7.75" fill="#ffffff" fill-rule="evenodd" stroke="none"/>
      <path d="M10.05 4.1 L10.1 5.0 10.8 5.4 Q9.7 6.85 3.3 7.75 -4.5 8.8 -10.05 5.85 -4.95 6.3 -0.85 5.9 L7.95 5.6 4.7 5.45 Q7.9 5.1 10.05 4.1" fill="#abb8d9" fill-rule="evenodd" stroke="none"/>
      <path d="M11.0 4.55 L11.5 4.5 11.8 4.85 11.95 6.5 12.95 6.95 13.3 7.35 13.3 7.45 13.2 7.8 Q11.4 9.65 3.55 10.55 -6.2 11.7 -13.45 8.0 L-13.7 7.65 -13.7 7.55 -13.55 7.2 -12.75 6.15 -12.75 4.45 -12.55 4.05 -12.05 4.0 Q-7.3 6.5 1.85 6.0 9.5 5.55 11.0 4.55" fill="#414244" fill-rule="evenodd" stroke="none"/>
      <path d="M2.95 9.65 Q-6.15 10.5 -12.45 7.35 L-11.8 6.5 -11.8 5.2 Q-7.05 7.45 1.95 6.9 9.2 6.5 10.9 5.6 L11.0 7.1 11.8 7.5 Q10.4 8.95 2.95 9.65" fill="#ffffff" fill-rule="evenodd" stroke="none"/>
      <path d="M11.8 7.5 Q11.3 8.05 8.25 8.8 L0.85 9.8 Q3.05 9.4 4.75 8.5 -1.55 9.7 -6.85 7.8 6.1 9.1 10.9 6.25 L11.0 7.1 11.8 7.5" fill="#abb8d9" fill-rule="evenodd" stroke="none"/>
    </g>
  </defs>
</svg>
